X:35
T:Derrylahan Harbor* (r)
B:NFID.169b ("untitled reel")
035derry
S:F&MB
N:Source has |d<G (3GGG dGBG| in mm 1,3,5, and 7
L:1/8
M:C
R:reel
Q:360
K:G
DGFG dGBG|dGBG ABcA|DGFG dGBG|cBAG ABcA|
DGFG dGBG|dGBG ABcA|DGFG dGBG|cBAG ABcd||
(3efe df eAAG|egdB GBdf|edef gage|dBgB GABd|
(3efe df eAAf|(3ege dB GBdA|(3Bcd ef gage|dBgB GABd||

%%%

